docroot/modules/custom/liberty_claims/img/icon-radio-3.svg

<?xml version="1.0" encoding="UTF-8"?>
<svg width="70px" height="65px" viewBox="0 0 70 65" version="1.1" xmlns="http://www.w3.org/2000/svg" xmlns:xlink="http://www.w3.org/1999/xlink">
    <!-- Generator: Sketch 61.2 (89653) - https://sketch.com -->
    <title>Group 8</title>
    <desc>Created with Sketch.</desc>
    <defs>
        <polygon id="path-1" points="0.339192023 0.574601695 25.7860804 0.574601695 25.7860804 39.4890583 0.339192023 39.4890583"></polygon>
    </defs>
    <g id="DSK-Siniestros" stroke="none" stroke-width="1" fill="none" fill-rule="evenodd">
        <g id="9-Claims-Third-cases" transform="translate(-481.000000, -1249.000000)">
            <g id="Group-12" transform="translate(350.000000, 1032.000000)">
                <g id="Group-8" transform="translate(128.000000, 217.000000)">
                    <rect id="Rectangle" fill="#99E5EA" opacity="0.706659226" x="52" y="7.10144928" width="18" height="12.173913"></rect>
                    <g id="Group-7">
                        <g id="Group" transform="translate(49.000000, 0.000000)" fill="#333740">
                            <path d="M23,4.05797101 L15,4.05797101 L15,0 L13,0 L13,4.05797101 L11,4.05797101 L11,0 L9,0 L9,4.05797101 L1,4.05797101 C0.44771525,4.05797101 0,4.51217489 0,5.07246377 L0,21.3043478 C0,21.8646367 0.44771525,22.3188406 1,22.3188406 L11,22.3188406 L11,37.5362319 C11,38.0965208 10.5522847,38.5507246 10,38.5507246 L10,40.5797101 C11.6568542,40.5797101 13,39.2170985 13,37.5362319 L13,22.3188406 L23,22.3188406 C23.5522847,22.3188406 24,21.8646367 24,21.3043478 L24,5.07246377 C24,4.51217489 23.5522847,4.05797101 23,4.05797101 Z M22,20.2898551 L2,20.2898551 L2,6.08695652 L22,6.08695652 L22,20.2898551 Z" id="Shape" fill-rule="nonzero"></path>
                            <path d="M9.11,17.7028986 C9.28109597,18.0417049 9.62475706,18.2548227 10,18.2548227 C10.3752429,18.2548227 10.718904,18.0417049 10.89,17.7028986 L14,11.4028986 L15.11,13.6449275 C15.2794502,13.9860808 15.6234418,14.2017407 16,14.2028986 L20,14.2028986 L20,12.173913 L16.62,12.173913 L14.89,8.67391304 C14.718904,8.33510674 14.3752429,8.12198894 14,8.12198894 C13.6247571,8.12198894 13.281096,8.33510674 13.11,8.67391304 L10,14.973913 L8.89,12.7318841 C8.72054976,12.3907308 8.37655821,12.1750709 8,12.173913 L4,12.173913 L4,14.2028986 L7.38,14.2028986 L9.11,17.7028986 Z" id="Path"></path>
                        </g>
                        <g id="Group-32" transform="translate(0.000000, 23.333333)">
                            <g id="Group-33">
                                <g id="Group-29" transform="translate(7.000000, 25.362319)" stroke="#99E5EA" stroke-width="3">
                                    <line x1="0.483398438" y1="1.01449275" x2="8.12988281" y2="1.01449275" id="Path-14"></line>
                                    <line x1="32.4833984" y1="1.01449275" x2="40.1298828" y2="1.01449275" id="Path-14-Copy"></line>
                                </g>
                                <g id="Group-28" transform="translate(28.050965, 23.278849) rotate(-3.000000) translate(-28.050965, -23.278849) translate(2.050965, 1.974501)" fill="#333740">
                                    <g id="Group-30" transform="translate(0.971776, 0.078947)">
                                        <path d="M4.17854586,11.7011532 L8.15412083,12.0450469 L7.49101571,13.6023296 L6.92569567,14.0047903 L3.99519882,13.749498 L4.17854586,11.7011532 Z M11.405475,21.9068361 L10.5452718,23.8755898 L4.75303325,23.3740156 L4.93638029,21.3241691 L11.2740763,21.8737982 C11.3443593,21.8798051 11.3901961,21.8978257 11.405475,21.9068361 L11.405475,21.9068361 Z M9.06168868,35.5724797 L3.81490756,35.1189605 C3.79504497,35.1159571 3.77671027,35.1129536 3.75837556,35.1084485 L4.38481128,27.4767121 L4.51162631,26.0665979 L10.5254092,26.5876944 C10.6002759,26.5937013 10.6736147,26.5967047 10.7454257,26.5967047 C11.7752249,26.5967047 12.6919601,25.9704879 13.0418473,25.0093877 L13.9815009,22.8619294 C13.9983077,22.8243864 14.0135866,22.7853417 14.0258098,22.746297 C14.2886072,21.9503859 14.178599,21.1079215 13.724815,20.4321479 C13.2435291,19.7158279 12.4368021,19.260807 11.5139553,19.1812159 L5.32904853,18.6451022 C5.45127989,18.4558856 5.61934801,18.2756793 5.82408554,18.1270091 L8.70416195,16.0756609 L30.3822623,18.2295412 L30.2842676,17.0194528 L29.7525334,15.4304126 L10.5070745,13.5182333 L13.6636994,6.10124279 C14.022754,5.26628698 14.9180987,4.66860279 15.6789889,4.73317671 L31.4828237,6.23946446 L31.6329319,3.5318394 L15.9203958,2.04059441 C13.9692778,1.86789671 11.9539882,3.13534761 11.1289265,5.05304287 L9.26642621,9.42905226 L4.25341257,8.99355373 C2.78663625,8.86740933 1.58571314,9.8255061 1.460426,11.2251083 L1.23277009,13.7615118 C1.10901084,15.1551071 2.12047534,16.3009188 3.58725166,16.4285649 L3.63308842,16.43307 C2.91956286,17.138878 2.4718905,18.0188854 2.38938433,18.9334323 L1.50320698,28.829761 L1.51390222,28.829761 L0.995946833,35.1550017 C0.859964445,36.6657311 2.19992573,37.6914053 3.57350063,37.8100411 L8.91348315,38.2740723 C9.00821246,38.2815809 9.09988598,38.286086 9.1915595,38.286086 C10.571246,38.286086 11.660633,37.3790477 11.7767528,36.089071 L11.9280141,34.3906267 L9.18850371,34.1533551 L9.06168868,35.5724797 Z" id="Fill-255" transform="translate(16.309668, 20.155487) rotate(-3.000000) translate(-16.309668, -20.155487) "></path>
                                        <path d="M20.3058025,12.5038423 L24.2813775,12.8477359 L23.6182723,14.4050186 L23.0529523,14.8074793 L20.1224554,14.5521871 L20.3058025,12.5038423 Z M27.5327316,22.7095251 L26.6725284,24.6782788 L20.8802899,24.1767046 L21.0636369,22.1268581 L27.4013329,22.6764873 C27.4716159,22.6824941 27.5174527,22.7005148 27.5327316,22.7095251 L27.5327316,22.7095251 Z M25.1889453,36.3751687 L19.9421642,35.9216495 C19.9223016,35.9186461 19.9039669,35.9156426 19.8856322,35.9111375 L20.5120679,28.2794011 L20.6388829,26.8692869 L26.6526658,27.3903835 C26.7275325,27.3963903 26.8008714,27.3993938 26.8726823,27.3993938 C27.9024815,27.3993938 28.8192167,26.7731769 29.169104,25.8120767 L30.1087575,23.6646184 C30.1255643,23.6270754 30.1408433,23.5880308 30.1530664,23.5489861 C30.4158638,22.7530749 30.3058556,21.9106105 29.8520717,21.234837 C29.3707857,20.518517 28.5640587,20.0634961 27.641212,19.983905 L21.4563052,19.4477913 C21.5785365,19.2585747 21.7466046,19.0783684 21.9513422,18.9296982 L24.8314186,16.8783499 L35.5585771,17.9368455 L36.820478,16.7873726 L36.6286296,15.3022985 L26.6343311,14.3209223 L29.790956,6.90393182 C30.1500106,6.06897601 31.0453553,5.47129182 31.8062455,5.53586574 L47.6100804,7.04215349 L37.0250492,3.27266577 L32.0476525,2.84328344 C30.0965344,2.67058574 28.0812449,3.93803664 27.2561832,5.8557319 L25.3936828,10.2317413 L20.3806692,9.79624276 C18.9138929,9.67009836 17.7129698,10.6281951 17.5876826,12.0277973 L17.3600267,14.5642008 C17.2362675,15.9577961 18.247732,17.1036078 19.7145083,17.2312539 L19.760345,17.2357591 C19.0468195,17.941567 18.5991471,18.8215744 18.516641,19.7361213 L17.6304636,29.63245 L17.6411588,29.63245 L17.1232035,35.9576908 C16.9872211,37.4684202 18.3271824,38.4940943 19.7007573,38.6127301 L25.0407398,39.0767613 C25.1354691,39.0842699 25.2271426,39.0887751 25.3188161,39.0887751 C26.6985026,39.0887751 27.7878896,38.1817367 27.9040094,36.89176 L28.0552707,35.1933158 L25.3157603,34.9560442 L25.1889453,36.3751687 Z" id="Fill-255-Copy" transform="translate(32.361871, 20.958176) scale(-1, 1) rotate(-9.000000) translate(-32.361871, -20.958176) "></path>
                                    </g>
                                </g>
                            </g>
                            <g id="Group-25-Copy-3" transform="translate(17.363462, 22.788058) rotate(-4.000000) translate(-17.363462, -22.788058) translate(4.363462, 2.498203)">
                                <g id="Group-25-Copy" transform="translate(-0.000000, 0.000000)">
                                    <g id="Group-261" transform="translate(-0.000000, 0.276680)">
                                        <g id="Group-257">
                                            <mask id="mask-2" fill="white">
                                                <use xlink:href="#path-1"></use>
                                            </mask>
                                            <g id="Clip-256"></g>
                                        </g>
                                    </g>
                                </g>
                            </g>
                            <polygon id="Fill-234" fill="#333740" points="11 33.4782609 44 33.4782609 44 31.4492754 11 31.4492754"></polygon>
                        </g>
                        <rect id="Rectangle" fill="#333740" x="50" y="38.5507246" width="9" height="2.02898551"></rect>
                    </g>
                </g>
            </g>
        </g>
    </g>
</svg>

<svg xmlns="http://www.w3.org/2000/svg" viewBox="0 0 70.846 65.633">
  <g id="DSK-Siniestros" transform="translate(0.846)">
    <g id="_9-Claims-Third-cases" data-name="9-Claims-Third-cases" transform="translate(-481 -1249)">
      <g id="Group-12" transform="translate(350 1032)">
        <g id="Group-8" transform="translate(128 217)">
          <rect id="Rectangle" width="18" height="12.174" transform="translate(52 7.101)" fill="#fffcf9" stroke="#fffcf9" stroke-width="1" opacity="0.707"/>
          <g id="Group-7">
            <g id="Group" transform="translate(49)">
              <path id="Shape" d="M23,4.058H15V0H13V4.058H11V0H9V4.058H1A1.007,1.007,0,0,0,0,5.072V21.3a1.007,1.007,0,0,0,1,1.014H11V37.536a1.007,1.007,0,0,1-1,1.014V40.58a3.022,3.022,0,0,0,3-3.043V22.319H23A1.007,1.007,0,0,0,24,21.3V5.072A1.007,1.007,0,0,0,23,4.058ZM22,20.29H2V6.087H22Z" fill="#006729"/>
              <path id="Path" d="M9.11,17.7a.994.994,0,0,0,1.78,0L14,11.4l1.11,2.242A1,1,0,0,0,16,14.2h4V12.174H16.62l-1.73-3.5a.994.994,0,0,0-1.78,0L10,14.974,8.89,12.732A1,1,0,0,0,8,12.174H4V14.2H7.38Z" fill="#006729" fill-rule="evenodd"/>
            </g>
            <g id="Group-32" transform="translate(0 23.333)">
              <g id="Group-33">
                <g id="Group-29" transform="translate(7 25.362)">
                  <line id="Path-14" x2="7.646" transform="translate(0.483 1.014)" fill="none" stroke="#fffcf9" stroke-width="3"/>
                  <line id="Path-14-Copy" x2="7.647" transform="translate(32.483 1.014)" fill="none" stroke="#fffcf9" stroke-width="3"/>
                </g>
                <g id="Group-28" transform="translate(0.972 3.364) rotate(-3)">
                  <g id="Group-30" transform="translate(0.972 0.079)">
                    <path id="Fill-255" d="M4.179,11.7l3.976.344L7.491,13.6l-.565.4L4,13.75Zm7.227,10.206-.86,1.969-5.792-.5.183-2.05,6.338.55a.347.347,0,0,1,.131.033ZM9.062,35.572l-5.247-.453c-.02,0-.038-.006-.057-.011l.626-7.632.127-1.41,6.014.521q.112.009.22.009a2.427,2.427,0,0,0,2.3-1.587l.94-2.147a1.058,1.058,0,0,0,.044-.116,2.636,2.636,0,0,0-.3-2.314,2.931,2.931,0,0,0-2.211-1.251l-6.185-.536a1.968,1.968,0,0,1,.5-.518L8.7,16.076l21.678,2.154-.1-1.21-.532-1.589L10.507,13.518,13.664,6.1a2.216,2.216,0,0,1,2.015-1.368l15.8,1.506.15-2.708L15.92,2.041a4.95,4.95,0,0,0-4.792,3.012L9.266,9.429,4.253,8.994A2.479,2.479,0,0,0,1.46,11.225l-.228,2.536a2.458,2.458,0,0,0,2.354,2.667l.046,0a4.072,4.072,0,0,0-1.244,2.5L1.5,28.83h.011L1,35.155A2.608,2.608,0,0,0,3.573,37.81l5.34.464c.095.007.186.012.278.012a2.467,2.467,0,0,0,2.585-2.2l.151-1.7-2.74-.237Z" transform="translate(-1.033 0.881) rotate(-3)" fill="#006729" fill-rule="evenodd"/>
                    <path id="Fill-255-Copy" d="M20.306-12.5l3.976-.344-.663-1.557-.565-.4-2.931.255ZM27.533-22.71l-.86-1.969-5.792.5.183,2.05,6.338-.55a.346.346,0,0,0,.131-.033ZM25.189-36.375l-5.247.454c-.02,0-.038.006-.057.011l.627,7.632.127,1.41,6.014-.521q.112-.009.22-.009a2.427,2.427,0,0,1,2.3,1.587l.94,2.148a1.079,1.079,0,0,1,.044.116,2.636,2.636,0,0,1-.3,2.314,2.931,2.931,0,0,1-2.211,1.251l-6.185.536a1.968,1.968,0,0,0,.495.518l2.88,2.051,10.727-1.059,1.262,1.149L36.629-15.3l-9.994.981L29.791-6.9a2.216,2.216,0,0,0,2.015,1.368l15.8-1.506L37.025-3.273l-4.977.429a4.95,4.95,0,0,1-4.792-3.012l-1.863-4.376L20.381-9.8a2.479,2.479,0,0,1-2.793-2.232l-.228-2.536a2.458,2.458,0,0,1,2.355-2.667l.046,0a4.072,4.072,0,0,1-1.244-2.5l-.886-9.9h.011l-.518-6.325A2.608,2.608,0,0,1,19.7-38.613l5.34-.464c.095-.007.186-.012.278-.012a2.467,2.467,0,0,1,2.585,2.2l.151,1.7-2.74.237Z" transform="translate(67.604 5.321) rotate(-171)" fill="#006729" fill-rule="evenodd"/>
                  </g>
                </g>
              </g>
              <path id="Fill-234" d="M11,33.478H44V31.449H11Z" fill="#006729" fill-rule="evenodd"/>
            </g>
            <rect id="Rectangle-2" data-name="Rectangle" width="9" height="2.029" transform="translate(50 38.551)" fill="#006729"/>
          </g>
        </g>
      </g>
    </g>
  </g>
</svg>
